X: 14640
T: Gan Ainm
R: reel
M: 4/4
K: Aminor
A,3 B, CB,A,B,|G,A,B,C DB,G,B,|A,3 B, CB,CD|EGDG EA,A,G,|
A,3 B, CB,A,B,|G,A,B,C DB,G,B,|A,3 B, CB,CD|EGDG EA,A,E||
F3 F EAAE|FEDF ECA,E|FEDF EAAB|cedc (3AAA AE|
FEDF EAAE|FEDF ECA,E|FEDF EAAB|cedB cBAG||

